X:103
T: ALS KAISER KARL IM WEITEN ZUGE
N: B0132
O: Europa, Mitteleuropa, Deutschland
R: Ballade, Romanze
M: 4/4
L: 1/16
K: Eb
B,2G,2A,2 | B,4B,4E6G,2 | G,2A,2A,4z2
A,2G,2F,2 | G,4B,4E4D2C2 | B,8z4
B,4 | A,6F2E2D2C2B,2 | B,3EE4z2
E2D2E2 | C4F4E4D4 | E4z6

